packages/foundations/assets/icons/functional/images/transportation/car_24.svg

<svg width="24" height="24" viewBox="0 0 24 24" fill="none" xmlns="http://www.w3.org/2000/svg">
<g clip-path="url(#clip0_187_881)">
<path fill-rule="evenodd" clip-rule="evenodd" d="M16.5069 3.99994C17.5692 3.99994 18.484 4.72076 18.7949 5.74476L19.793 9.99994H21.3518C21.6882 9.99994 21.9487 10.2275 21.9932 10.5458L22 11.3106C22 11.6452 21.7701 11.9411 21.4503 11.9922L20.5171 12.0005C20.5498 12.1619 20.567 12.3289 20.567 12.4999C20.567 12.614 20.4376 13.7834 20.1787 16.0083C20.1269 16.4575 19.977 16.8756 19.7511 17.241L19.75 19.0001C19.75 19.5523 19.3023 20.0001 18.75 20.0001H17.75C17.1977 20.0001 16.75 19.5523 16.75 19.0001V18.7159C15.1667 18.739 13.5834 18.7504 12 18.7501C10.4166 18.7497 8.8333 18.7377 7.25 18.7139V19.0001C7.25 19.5523 6.80228 20.0001 6.25 20.0001H5.25C4.69772 20.0001 4.25 19.5523 4.25 19.0001L4.25011 17.243C4.06128 16.9381 3.92541 16.5964 3.85531 16.2306C3.80858 15.9866 3.67331 14.8386 3.44951 12.7865C3.41842 12.5171 3.43139 12.2528 3.48269 12.0007L2.64823 11.9999C2.2782 11.9999 2 11.6786 2 11.3106V10.6439C2 10.2753 2.2782 9.99994 2.64823 9.99994H4.206L5.16105 5.90891C5.40716 4.85414 6.35901 3.99994 7.44168 3.99994H16.5069ZM5.87572 12.0032C5.63188 12.0314 5.44935 12.2305 5.43403 12.467C5.42381 12.6248 5.44414 12.8251 5.495 13.0679L6.6644 13.2635C7.20917 13.3543 7.57719 13.8696 7.48639 14.4143C7.40208 14.9202 6.95181 15.2737 6.45174 15.2489L5.734 15.1359L5.80806 15.779C5.85777 16.2098 6.17795 16.5546 6.5938 16.6426C8.8646 16.8786 10.6667 16.9978 12 17C13.3333 17.0021 15.0968 16.8888 17.2905 16.6601C17.7223 16.6202 18.0744 16.308 18.1718 15.8942L18.265 15.1359L17.6644 15.2363C17.1196 15.3271 16.6044 14.9591 16.5136 14.4143C16.4293 13.9085 16.7406 13.4281 17.2217 13.2894L18.504 13.0679C18.5449 12.9088 18.5656 12.729 18.5662 12.5286C18.567 12.2281 18.3642 12.008 18.0975 12.008C17.9196 12.008 13.8457 12.0064 5.87572 12.0032ZM14 13.3999C14.315 13.3999 14.6091 13.5481 14.7967 13.7956L15.3619 14.7429C15.642 15.219 15.4831 15.8319 15.007 16.1119C14.565 16.3719 14.0049 16.2535 13.703 15.8541L13.427 15.3989H10.572L10.3619 15.757C10.1019 16.199 9.47706 16.4193 8.99298 16.1119C8.5089 15.8044 8.38236 15.3048 8.58473 14.8468L9.13807 13.8929C9.29777 13.6214 9.5746 13.4431 9.88303 13.4068L14 13.3999ZM7.49309 5.99994C7.35029 5.99994 7.20851 6.10148 7.13782 6.27232C7.0907 6.38621 6.79776 7.62875 6.259 9.99994H17.74L16.8913 6.36337C16.8462 6.17032 16.7282 5.99994 16.4839 5.99994C16.3211 5.99994 13.3241 5.99994 7.49309 5.99994Z" fill="#1A1C1F"/>
</g>
<defs>
<clipPath id="clip0_187_881">
<rect width="24" height="24" fill="white"/>
</clipPath>
</defs>
</svg>

<svg xmlns="http://www.w3.org/2000/svg" width="24" height="24" fill="none"><g clip-path="url(#a)"><path fill="#1A1C1F" fill-rule="evenodd" d="M16.507 4c1.062 0 1.977.72 2.288 1.745L19.793 10h1.559c.336 0 .597.227.641.546l.007.765c0 .334-.23.63-.55.681l-.933.008q.05.243.05.5 0 .17-.388 3.508c-.052.45-.202.868-.428 1.233l-.001 1.76a1 1 0 0 1-1 1h-1a1 1 0 0 1-1-1v-.285a321 321 0 0 1-9.5-.002V19a1 1 0 0 1-1 1h-1a1 1 0 0 1-1-1v-1.757a3 3 0 0 1-.395-1.012q-.07-.366-.405-3.445a2.5 2.5 0 0 1 .033-.785L2.648 12c-.37 0-.648-.321-.648-.69v-.666A.63.63 0 0 1 2.648 10h1.558l.955-4.091c.246-1.055 1.198-1.91 2.28-1.91zM5.876 12.003a.5.5 0 0 0-.442.464q-.015.237.061.6l1.17.197a1 1 0 0 1-.213 1.985l-.718-.113.074.643a1 1 0 0 0 .786.864Q10 16.997 12 17t5.29-.34a1 1 0 0 0 .882-.766l.093-.758-.6.1a1 1 0 0 1-.443-1.947l1.282-.221q.061-.24.062-.54c.001-.3-.202-.52-.468-.52zM14 13.4a1 1 0 0 1 .797.396l.565.947a1 1 0 0 1-1.659 1.111l-.276-.455h-2.855l-.21.358c-.26.442-.885.662-1.369.355s-.61-.807-.408-1.265l.553-.954a1 1 0 0 1 .745-.486zM7.493 6c-.143 0-.284.101-.355.272q-.07.171-.879 3.728H17.74l-.849-3.637C16.846 6.17 16.728 6 16.484 6z" clip-rule="evenodd"/></g><defs><clipPath id="a"><path fill="#fff" d="M0 0h24v24H0z"/></clipPath></defs></svg>
